client/src/assets/images/icon-laboratory.svg

<svg fill="none" height="75" viewBox="0 0 53 75" width="53" xmlns="http://www.w3.org/2000/svg"><path d="m1.93854 75h44.38526c.645 0 1.168-.5597 1.168-1.25v-17.0215c1.131-1.4129 4.6722-6.5472 4.6722-15.4785s-3.5412-14.0656-4.6722-15.4779v-4.5221c0-.6903-.523-1.25-1.168-1.25h-8.8606l7.3504-7.8662c.4562-.4877.4562-1.2793 0-1.7676l-.3422-.3662 2.6782-2.86621c.4563-.48828.4563-1.2793 0-1.76758l-4.6721-4.999999c-.4557-.488281-1.1954-.488281-1.6517 0l-2.6782 2.866209-.3422-.36621c-.4563-.48828-1.1954-.48828-1.6517 0l-18.6885 19.99999c-.4563.4883-.4563 1.2799 0 1.7676l.3422.3662-3.8463 4.1162c-.4563.4883-.4563 1.2799 0 1.7676l4.6721 5c.4563.4883 1.1954.4883 1.6517 0l3.8463-4.1162.3422.3662c.4562.4883 1.1959.4883 1.6516 0l2.9669-3.1751c2.5288 1.8067 5.9331 1.2085 7.789-1.369 1.5028.8429 7.1068 4.5947 7.1068 13.6603 0 8.2196-6.0774 12.8699-7.3447 13.75h-5.5036v-8.75c0-.6903-.523-1.25-1.1681-1.25h-21.02456c-.64504 0-1.16803.5597-1.16803 1.25v5c0 .6903.52299 1.25 1.16803 1.25h15.18446v2.5h-3.5041c-.6451 0-1.1681.5597-1.1681 1.25v8.75h-12.84833c-3.22407.0043-5.83617 2.8003-5.840162 6.25v2.5c0 .6903.522992 1.25 1.168032 1.25zm39.71316-71.98242 3.0204 3.23242-1.8524 1.98242-3.0205-3.23242zm-22.1927 30.21482-3.0204-3.2324 3.0204-3.2324 3.0205 3.2324zm12.8484-5.7324c-1.9351 0-3.5041-1.6791-3.5041-3.75s1.569-3.75 3.5041-3.75 3.5041 1.6791 3.5041 3.75c-.0023 2.0703-1.5695 3.7476-3.5041 3.75zm3.2155-8.9587c-2.3121-1.6425-5.3856-1.3135-7.3475.7867-1.9625 2.0996-2.2699 5.3888-.7352 7.8632l-2.141 2.2912-5.3565-5.7324 17.0368-18.23242 5.3566 5.73242zm2.5066 6.4587c.1574-.8246.1574-1.6748 0-2.5h7.1263v2.5zm8.2943 16.25c.1631-5.2325-1.8576-10.2716-5.5139-13.75h4.9852c2.7644 3.96 4.1868 8.8098 4.0328 13.75.154 4.9402-1.2684 9.79-4.0322 13.75h-5.3611c3.6968-3.4821 5.8373-8.4802 5.8892-13.75zm-36.209 8.75v-2.5h18.6885v2.5zm18.6885 2.5v8.75c0 .6903-.523 1.25-1.168 1.25-.6451 0-1.1681-.5597-1.1681-1.25v-8.75zm-7.0082 5h2.3361v3.75c0 2.0709 1.5689 3.75 3.5041 3.75 1.9351 0 3.5041-1.6791 3.5041-3.75v-3.75h14.0164v7.5h-23.3607zm-18.68853 13.75c.00229-2.0703 1.56955-3.7476 3.5041-3.75h38.54513v5h-42.04923z" fill="#fff"/></svg>

<svg width="53" height="75" viewBox="0 0 53 75" fill="none" xmlns="http://www.w3.org/2000/svg">
<path d="M1.93854 75H46.3238C46.9688 75 47.4918 74.4403 47.4918 73.75V56.7285C48.6228 55.3156 52.164 50.1813 52.164 41.25C52.164 32.3187 48.6228 27.1844 47.4918 25.7721V21.25C47.4918 20.5597 46.9688 20 46.3238 20H37.4632L44.8136 12.1338C45.2698 11.6461 45.2698 10.8545 44.8136 10.3662L44.4714 10L47.1496 7.13379C47.6059 6.64551 47.6059 5.85449 47.1496 5.36621L42.4775 0.366211C42.0218 -0.12207 41.2821 -0.12207 40.8258 0.366211L38.1476 3.23242L37.8054 2.86621C37.3491 2.37793 36.61 2.37793 36.1537 2.86621L17.4652 22.8662C17.0089 23.3545 17.0089 24.1461 17.4652 24.6338L17.8074 25L13.9611 29.1162C13.5048 29.6045 13.5048 30.3961 13.9611 30.8838L18.6332 35.8838C19.0895 36.3721 19.8286 36.3721 20.2849 35.8838L24.1312 31.7676L24.4734 32.1338C24.9296 32.6221 25.6693 32.6221 26.125 32.1338L29.0919 28.9587C31.6207 30.7654 35.025 30.1672 36.8809 27.5897C38.3837 28.4326 43.9877 32.1844 43.9877 41.25C43.9877 49.4696 37.9103 54.1199 36.643 55H31.1394V46.25C31.1394 45.5597 30.6164 45 29.9713 45H8.94674C8.3017 45 7.77871 45.5597 7.77871 46.25V51.25C7.77871 51.9403 8.3017 52.5 8.94674 52.5H24.1312V55H20.6271C19.982 55 19.459 55.5597 19.459 56.25V65H6.61067C3.3866 65.0043 0.7745 67.8003 0.770508 71.25V73.75C0.770508 74.4403 1.2935 75 1.93854 75ZM41.6517 3.01758L44.6721 6.25L42.8197 8.23242L39.7992 5L41.6517 3.01758ZM19.459 33.2324L16.4386 30L19.459 26.7676L22.4795 30L19.459 33.2324ZM32.3074 27.5C30.3723 27.5 28.8033 25.8209 28.8033 23.75C28.8033 21.6791 30.3723 20 32.3074 20C34.2425 20 35.8115 21.6791 35.8115 23.75C35.8092 25.8203 34.242 27.4976 32.3074 27.5ZM35.5229 18.5413C33.2108 16.8988 30.1373 17.2278 28.1754 19.328C26.2129 21.4276 25.9055 24.7168 27.4402 27.1912L25.2992 29.4824L19.9427 23.75L36.9795 5.51758L42.3361 11.25L35.5229 18.5413ZM38.0295 25C38.1869 24.1754 38.1869 23.3252 38.0295 22.5H45.1558V25H38.0295ZM46.3238 41.25C46.4869 36.0175 44.4662 30.9784 40.8099 27.5H45.7951C48.5595 31.46 49.9819 36.3098 49.8279 41.25C49.9819 46.1902 48.5595 51.04 45.7957 55H40.4346C44.1314 51.5179 46.2719 46.5198 46.3238 41.25ZM10.1148 50V47.5H28.8033V50H10.1148ZM28.8033 52.5V61.25C28.8033 61.9403 28.2803 62.5 27.6353 62.5C26.9902 62.5 26.4672 61.9403 26.4672 61.25V52.5H28.8033ZM21.7951 57.5H24.1312V61.25C24.1312 63.3209 25.7001 65 27.6353 65C29.5704 65 31.1394 63.3209 31.1394 61.25V57.5H45.1558V65H21.7951V57.5ZM3.10657 71.25C3.10886 69.1797 4.67612 67.5024 6.61067 67.5H45.1558V72.5H3.10657V71.25Z" fill="#fff"/>
</svg>
